;FLAVOR:Marlin
;TIME:4896
;Filament used: 3.32592m
;Layer height: 0.2
;MINX:61.893
;MINY:76.138
;MINZ:0.2
;MAXX:173.107
;MAXY:158.862
;MAXZ:7
;Generated with Cura_SteamEngine 4.8.0
M140 S50
M105
M190 S50
M104 S200
M105
M109 S200
M82 ;absolute extrusion mode
; Ender 3 Custom Start G-code
G92 E0 ; Reset Extruder
G28 ; Home all axes
G1 Z2.0 F3000 ; Move Z Axis up little to prevent scratching of Heat Bed
G1 X0.1 Y20 Z0.3 F5000.0 ; Move to start position
G1 X0.1 Y200.0 Z0.3 F1500.0 E15 ; Draw the first line
G1 X0.4 Y200.0 Z0.3 F5000.0 ; Move to side a little
G1 X0.4 Y20 Z0.3 F1500.0 E30 ; Draw the second line
G92 E0 ; Reset Extruder
G1 Z2.0 F3000 ; Move Z Axis up little to prevent scratching of Heat Bed
G1 X5 Y20 Z0.3 F5000.0 ; Move over to prevent blob squish
G92 E0
G92 E0
G1 F2700 E-5
;LAYER_COUNT:35
;LAYER:0
M107
G0 F6000 X72.309 Y79.086 Z0.2
;TYPE:SKIRT
G1 F2700 E0
G1 F1200 X73.023 Y78.478 E0.03119
G1 X73.786 Y77.933 E0.06238
G1 X74.593 Y77.454 E0.09359
G1 X75.437 Y77.047 E0.12476
G1 X76.313 Y76.712 E0.15595
G1 X77.215 Y76.454 E0.18715
G1 X78.135 Y76.273 E0.21834
G1 X79.451 Y76.153 E0.26229
G1 X79.773 Y76.143 E0.27301
G1 X80.114 Y76.138 E0.28435
G1 X104.751 Y76.138 E1.10378
G1 X105.61 Y76.149 E1.13235
G1 X106.547 Y76.202 E1.16357
G1 X107.475 Y76.335 E1.19475
G1 X108.389 Y76.547 E1.22595
G1 X109.281 Y76.835 E1.25713
G1 X110.146 Y77.199 E1.28834
G1 X111.08 Y77.696 E1.32353
G1 X113.349 Y79.047 E1.41136
G1 X115.582 Y80.293 E1.49641
G1 X117.802 Y81.451 E1.57969
G1 X120.066 Y82.551 E1.66341
G1 X122.364 Y83.589 E1.74728
G1 X124.68 Y84.557 E1.83077
G1 X127.067 Y85.478 E1.91586
G1 X129.397 Y86.298 E1.99802
G1 X131.785 Y87.066 E2.08145
G1 X134.223 Y87.775 E2.1659
G1 X136.647 Y88.405 E2.2492
G1 X139.125 Y88.975 E2.33377
G1 X141.595 Y89.472 E2.41757
G1 X144.031 Y89.888 E2.49976
G1 X146.56 Y90.247 E2.58472
G1 X149.037 Y90.528 E2.66764
G1 X151.896 Y90.767 E2.76306
G1 X153.523 Y90.879 E2.8173
G1 X154.014 Y90.918 E2.83368
G1 X154.711 Y90.984 E2.85697
G1 X155.903 Y91.163 E2.89706
G1 X156.193 Y91.223 E2.90691
G1 X156.523 Y91.297 E2.91816
G1 X157.289 Y91.482 E2.94437
G1 X157.949 Y91.652 E2.96704
G1 X159.147 Y92.035 E3.00887
G1 X159.47 Y92.159 E3.02038
G1 X159.73 Y92.262 E3.02968
G1 X160.382 Y92.533 E3.05316
G1 X161.028 Y92.813 E3.07658
G1 X162.102 Y93.35 E3.11652
G1 X162.337 Y93.484 E3.12551
G1 X162.628 Y93.656 E3.13676
G1 X163.243 Y94.034 E3.16077
G1 X163.857 Y94.422 E3.18492
G1 X164.861 Y95.139 E3.22596
G1 X165.098 Y95.329 E3.23606
G1 X165.348 Y95.535 E3.24684
G1 X165.88 Y95.99 E3.27012
G1 X166.452 Y96.494 E3.29547
G1 X167.314 Y97.342 E3.33569
G1 X167.517 Y97.565 E3.34572
G1 X167.746 Y97.825 E3.35725
G1 X168.202 Y98.36 E3.38063
G1 X168.664 Y98.918 E3.40472
G1 X169.383 Y99.891 E3.44496
G1 X169.571 Y100.177 E3.45634
G1 X169.763 Y100.479 E3.46825
G1 X170.122 Y101.069 E3.49122
G1 X170.466 Y101.649 E3.51365
G1 X171.024 Y102.719 E3.55378
G1 X171.15 Y102.997 E3.56394
G1 X171.288 Y103.314 E3.57543
G1 X171.558 Y103.968 E3.59897
G1 X171.824 Y104.635 E3.62285
G1 X172.23 Y105.856 E3.66565
G1 X172.331 Y106.232 E3.6786
G1 X172.403 Y106.512 E3.68821
G1 X172.549 Y107.124 E3.70914
G1 X172.705 Y107.816 E3.73273
G1 X172.914 Y109.088 E3.77561
G1 X172.955 Y109.479 E3.78868
G1 X172.982 Y109.771 E3.79844
G1 X173.026 Y110.349 E3.81772
G1 X173.074 Y111.088 E3.84235
G1 X173.095 Y111.556 E3.85793
G1 X173.102 Y111.849 E3.86768
G1 X173.107 Y112.348 E3.88427
G1 X173.107 Y117.422 E4.05304
G1 X173.1 Y119.252 E4.1139
G1 X173.107 Y120.177 E4.14467
G1 X173.106 Y125.45 E4.32005
G1 X173.096 Y126.156 E4.34353
G1 X173.081 Y126.611 E4.35868
G1 X173.068 Y126.856 E4.36684
G1 X173.03 Y127.415 E4.38547
G1 X172.988 Y127.932 E4.40272
G1 X172.925 Y128.599 E4.42501
G1 X172.742 Y129.814 E4.46587
G1 X172.681 Y130.106 E4.4758
G1 X172.614 Y130.404 E4.48595
G1 X172.445 Y131.107 E4.51
G1 X172.271 Y131.792 E4.53351
G1 X171.873 Y133.043 E4.57717
G1 X171.721 Y133.437 E4.59122
G1 X171.619 Y133.691 E4.60032
G1 X171.405 Y134.205 E4.61884
G1 X171.106 Y134.898 E4.64394
G1 X170.517 Y136.067 E4.68748
G1 X170.302 Y136.437 E4.70171
G1 X170.159 Y136.675 E4.71095
G1 X169.874 Y137.137 E4.729
G1 X169.486 Y137.751 E4.75316
G1 X168.769 Y138.755 E4.7942
G1 X168.579 Y138.992 E4.8043
G1 X168.373 Y139.242 E4.81507
G1 X167.92 Y139.772 E4.83826
G1 X167.418 Y140.342 E4.86352
G1 X166.571 Y141.203 E4.9037
G1 X166.346 Y141.408 E4.91382
G1 X166.083 Y141.64 E4.92548
G1 X165.548 Y142.096 E4.94886
G1 X164.99 Y142.558 E4.97296
G1 X164.017 Y143.277 E5.0132
G1 X163.731 Y143.465 E5.02458
G1 X163.429 Y143.657 E5.03648
G1 X162.968 Y143.939 E5.05446
G1 X162.221 Y144.381 E5.08333
G1 X161.086 Y144.966 E5.1258
G1 X160.759 Y145.111 E5.13769
G1 X160.506 Y145.219 E5.14684
G1 X159.929 Y145.457 E5.1676
G1 X159.255 Y145.725 E5.19173
G1 X158.041 Y146.127 E5.23426
G1 X157.672 Y146.226 E5.24697
G1 X157.396 Y146.297 E5.25645
G1 X156.784 Y146.443 E5.27737
G1 X156.092 Y146.599 E5.30097
G1 X154.82 Y146.808 E5.34384
G1 X154.429 Y146.849 E5.35692
G1 X154.137 Y146.876 E5.36667
G1 X153.545 Y146.921 E5.38642
G1 X152.791 Y146.969 E5.41155
G1 X152.39 Y146.988 E5.4249
G1 X152.063 Y146.996 E5.43578
G1 X151.767 Y146.999 E5.44562
G1 X149.193 Y147.065 E5.53126
G1 X146.674 Y147.2 E5.61517
G1 X144.149 Y147.408 E5.69943
G1 X141.663 Y147.683 E5.78262
G1 X139.162 Y148.031 E5.86661
G1 X136.669 Y148.451 E5.95069
G1 X134.212 Y148.937 E6.034
G1 X131.771 Y149.491 E6.11725
G1 X129.324 Y150.121 E6.20129
G1 X126.886 Y150.822 E6.28566
G1 X124.498 Y151.583 E6.36902
G1 X122.153 Y152.402 E6.45164
G1 X119.774 Y153.311 E6.53634
G1 X117.456 Y154.271 E6.61979
G1 X115.162 Y155.3 E6.70342
G1 X112.837 Y156.421 E6.78926
G1 X111.468 Y157.122 E6.84042
G1 X110.549 Y157.602 E6.8749
G1 X109.7 Y158.001 E6.9061
G1 X108.82 Y158.325 E6.93729
G1 X107.915 Y158.574 E6.96851
G1 X106.993 Y158.744 E6.9997
G1 X105.791 Y158.847 E7.03982
G1 X105.463 Y158.857 E7.05074
G1 X105.128 Y158.862 E7.06188
G1 X80.334 Y158.861 E7.88653
G1 X79.635 Y158.851 E7.90978
G1 X78.698 Y158.797 E7.941
G1 X77.77 Y158.665 E7.97217
G1 X76.856 Y158.453 E8.00338
G1 X75.964 Y158.164 E8.03457
G1 X75.099 Y157.801 E8.06577
G1 X74.269 Y157.365 E8.09695
G1 X73.479 Y156.86 E8.12814
G1 X72.734 Y156.289 E8.15936
G1 X72.041 Y155.657 E8.19055
G1 X71.404 Y154.969 E8.22174
G1 X70.829 Y154.228 E8.25293
G1 X70.318 Y153.442 E8.28411
G1 X69.876 Y152.614 E8.31533
G1 X69.507 Y151.753 E8.34649
G1 X69.212 Y150.862 E8.3777
G1 X69.076 Y150.334 E8.39584
G1 X68.785 Y149.076 E8.43878
G1 X68.15 Y146.496 E8.52716
G1 X67.499 Y144.141 E8.60842
G1 X66.468 Y140.842 E8.72338
G1 X65.651 Y138.499 E8.80591
G1 X64.737 Y136.102 E8.89123
G1 X63.931 Y134.139 E8.96181
G1 X63.559 Y133.238 E8.99423
G1 X63.285 Y132.548 E9.01893
G1 X62.896 Y131.385 E9.05972
G1 X62.816 Y131.092 E9.06982
G1 X62.729 Y130.752 E9.08149
G1 X62.469 Y129.661 E9.11879
G1 X62.319 Y128.997 E9.14143
G1 X62.111 Y127.737 E9.18391
G1 X62.076 Y127.408 E9.19491
G1 X62.048 Y127.103 E9.2051
G1 X61.971 Y126.109 E9.23826
G1 X61.926 Y125.411 E9.26152
G1 X61.909 Y125.065 E9.27305
G1 X61.899 Y124.685 E9.28569
G1 X61.893 Y124.141 E9.30378
G1 X61.894 Y110.817 E9.74694
G1 X61.904 Y110.136 E9.76959
G1 X61.914 Y109.802 E9.78071
G1 X61.934 Y109.415 E9.7936
G1 X61.971 Y108.878 E9.8115
G1 X62.035 Y108.071 E9.83843
G1 X62.097 Y107.409 E9.86054
G1 X62.274 Y106.224 E9.90039
G1 X62.337 Y105.917 E9.91081
G1 X62.416 Y105.56 E9.92298
G1 X62.689 Y104.426 E9.96177
G1 X62.852 Y103.786 E9.98374
G1 X63.228 Y102.597 E10.02521
G1 X63.34 Y102.302 E10.03571
G1 X63.456 Y102.008 E10.04622
G1 X64.729 Y98.928 E10.15707
G1 X65.648 Y96.53 E10.24248
G1 X66.47 Y94.175 E10.32544
G1 X67.227 Y91.802 E10.40829
G1 X67.926 Y89.373 E10.49235
G1 X68.559 Y86.918 E10.57668
G1 X69.071 Y84.687 E10.65281
G1 X69.319 Y83.783 E10.68399
G1 X69.644 Y82.903 E10.71519
G1 X70.042 Y82.054 E10.74638
G1 X70.512 Y81.242 E10.77758
G1 X71.049 Y80.473 E10.80878
G1 X71.649 Y79.753 E10.83995
G1 X72.309 Y79.086 E10.87116
G0 F6000 X72.668 Y79.299
G1 F1200 X73.376 Y78.71 E10.90179
G1 X74.132 Y78.186 E10.93239
G1 X74.931 Y77.728 E10.96302
G1 X75.767 Y77.342 E10.99364
G1 X76.633 Y77.03 E11.02426
G1 X77.523 Y76.794 E11.05488
G1 X78.43 Y76.636 E11.0855
G1 X79.463 Y76.553 E11.11997
G1 X79.785 Y76.543 E11.13069
G1 X80.114 Y76.538 E11.14163
G1 X104.751 Y76.538 E11.96106
G1 X105.605 Y76.549 E11.98947
G1 X106.524 Y76.602 E12.02008
G1 X107.435 Y76.735 E12.05071
G1 X108.331 Y76.946 E12.08132
G1 X109.205 Y77.234 E12.11193
G1 X110.052 Y77.597 E12.14258
G1 X110.876 Y78.039 E12.17368
G1 X113.199 Y79.421 E12.26358
G1 X115.354 Y80.625 E12.34569
G1 X117.621 Y81.807 E12.43072
G1 X119.892 Y82.911 E12.51471
G1 X122.238 Y83.97 E12.60032
G1 X124.517 Y84.923 E12.68248
G1 X126.916 Y85.849 E12.768
G1 X129.291 Y86.684 E12.85174
G1 X131.67 Y87.449 E12.93485
G1 X134.107 Y88.157 E13.01926
G1 X136.57 Y88.798 E13.10391
G1 X139.028 Y89.364 E13.1878
G1 X141.514 Y89.863 E13.27213
G1 X143.98 Y90.284 E13.35534
G1 X146.53 Y90.647 E13.44101
G1 X148.992 Y90.926 E13.52342
G1 X151.842 Y91.165 E13.61854
G1 X153.493 Y91.278 E13.67358
G1 X153.976 Y91.316 E13.6897
G1 X154.673 Y91.382 E13.71299
G1 X155.822 Y91.555 E13.75163
G1 X156.112 Y91.615 E13.76148
G1 X156.43 Y91.686 E13.77232
G1 X157.189 Y91.869 E13.79829
G1 X157.849 Y92.039 E13.82095
G1 X159.004 Y92.408 E13.86128
G1 X159.327 Y92.532 E13.87279
G1 X159.577 Y92.632 E13.88175
G1 X160.222 Y92.9 E13.90498
G1 X160.868 Y93.18 E13.92839
G1 X161.904 Y93.698 E13.96692
G1 X162.139 Y93.832 E13.97592
G1 X162.419 Y93.998 E13.98674
G1 X163.03 Y94.372 E14.01057
G1 X163.644 Y94.76 E14.03473
G1 X164.611 Y95.451 E14.07426
G1 X164.848 Y95.641 E14.08436
G1 X165.089 Y95.84 E14.09476
G1 X165.616 Y96.29 E14.1178
G1 X166.188 Y96.794 E14.14316
G1 X167.019 Y97.611 E14.18192
G1 X167.222 Y97.834 E14.19195
G1 X167.442 Y98.085 E14.20305
G1 X167.894 Y98.615 E14.22622
G1 X168.356 Y99.173 E14.25031
G1 X169.049 Y100.11 E14.28908
G1 X169.237 Y100.396 E14.30046
G1 X169.421 Y100.688 E14.31194
G1 X169.778 Y101.273 E14.33473
G1 X170.122 Y101.853 E14.35716
G1 X170.66 Y102.884 E14.39584
G1 X170.786 Y103.162 E14.40599
G1 X170.918 Y103.468 E14.41708
G1 X171.187 Y104.116 E14.44041
G1 X171.453 Y104.783 E14.4643
G1 X171.844 Y105.96 E14.50555
G1 X171.945 Y106.336 E14.5185
G1 X172.014 Y106.605 E14.52773
G1 X172.159 Y107.212 E14.54849
G1 X172.315 Y107.904 E14.57208
G1 X172.516 Y109.13 E14.61341
G1 X172.557 Y109.521 E14.62648
G1 X172.583 Y109.802 E14.63587
G1 X172.627 Y110.375 E14.65498
G1 X172.675 Y111.114 E14.67961
G1 X172.69 Y111.409 E14.68944
G1 X172.696 Y111.571 E14.69483
G1 X172.702 Y111.853 E14.70421
G1 X172.707 Y112.348 E14.72067
G1 X172.707 Y117.421 E14.8894
G1 X172.7 Y119.255 E14.9504
G1 X172.707 Y120.18 E14.98117
G1 X172.706 Y125.444 E15.15625
G1 X172.696 Y126.15 E15.17974
G1 X172.681 Y126.594 E15.19451
G1 X172.669 Y126.83 E15.20237
G1 X172.642 Y127.244 E15.21617
G1 X172.59 Y127.895 E15.23789
G1 X172.527 Y128.562 E15.26017
G1 X172.35 Y129.733 E15.29956
G1 X172.289 Y130.025 E15.30949
G1 X172.225 Y130.311 E15.31923
G1 X172.058 Y131.009 E15.3431
G1 X171.884 Y131.694 E15.36661
G1 X171.5 Y132.899 E15.40868
G1 X171.348 Y133.293 E15.42272
G1 X171.25 Y133.538 E15.4315
G1 X171.038 Y134.046 E15.44981
G1 X170.739 Y134.739 E15.47491
G1 X170.171 Y135.866 E15.51688
G1 X169.956 Y136.236 E15.53112
G1 X169.819 Y136.465 E15.53999
G1 X169.536 Y136.924 E15.55793
G1 X169.148 Y137.538 E15.58209
G1 X168.457 Y138.505 E15.62162
G1 X168.267 Y138.742 E15.63172
G1 X168.068 Y138.983 E15.64211
G1 X167.62 Y139.508 E15.66507
G1 X167.118 Y140.078 E15.69033
G1 X166.302 Y140.907 E15.72902
G1 X166.077 Y141.112 E15.73914
G1 X165.823 Y141.336 E15.75041
G1 X165.293 Y141.788 E15.77358
G1 X164.735 Y142.25 E15.79767
G1 X163.798 Y142.943 E15.83643
G1 X163.512 Y143.131 E15.84782
G1 X163.22 Y143.315 E15.8593
G1 X162.619 Y143.682 E15.88272
G1 X162.018 Y144.037 E15.90593
G1 X160.924 Y144.6 E15.94686
G1 X160.597 Y144.745 E15.95875
G1 X160.353 Y144.85 E15.96759
G1 X159.782 Y145.085 E15.98813
G1 X159.108 Y145.353 E16.01225
G1 X157.938 Y145.741 E16.05325
G1 X157.569 Y145.84 E16.06596
G1 X157.303 Y145.908 E16.07509
G1 X156.696 Y146.053 E16.09584
G1 X156.004 Y146.209 E16.11944
G1 X154.778 Y146.41 E16.16076
G1 X154.387 Y146.451 E16.17384
G1 X154.106 Y146.477 E16.18322
G1 X153.519 Y146.522 E16.2028
G1 X152.765 Y146.57 E16.22793
G1 X152.373 Y146.588 E16.24098
G1 X152.058 Y146.596 E16.25146
G1 X151.821 Y146.599 E16.25935
G1 X149.162 Y146.666 E16.34781
G1 X146.619 Y146.803 E16.43252
G1 X144.143 Y147.007 E16.51515
G1 X141.6 Y147.288 E16.60024
G1 X139.106 Y147.635 E16.68399
G1 X136.596 Y148.058 E16.76865
G1 X134.117 Y148.548 E16.8527
G1 X131.688 Y149.1 E16.93555
G1 X129.185 Y149.744 E17.02151
G1 X126.801 Y150.429 E17.10401
G1 X124.382 Y151.2 E17.18845
G1 X121.984 Y152.038 E17.27294
G1 X119.658 Y152.927 E17.35576
G1 X117.276 Y153.913 E17.44151
G1 X114.974 Y154.946 E17.52543
G1 X112.693 Y156.046 E17.60966
G1 X111.282 Y156.768 E17.66237
G1 X110.363 Y157.248 E17.69686
G1 X109.53 Y157.638 E17.72745
G1 X108.665 Y157.955 E17.75809
G1 X107.776 Y158.195 E17.78872
G1 X106.87 Y158.357 E17.81933
G1 X105.779 Y158.447 E17.85574
G1 X105.451 Y158.457 E17.86665
G1 X105.128 Y158.462 E17.8774
G1 X80.339 Y158.461 E18.70188
G1 X79.64 Y158.451 E18.72513
G1 X78.721 Y158.398 E18.75575
G1 X77.81 Y158.265 E18.78637
G1 X76.914 Y158.054 E18.81699
G1 X76.04 Y157.766 E18.8476
G1 X75.194 Y157.403 E18.87821
G1 X74.382 Y156.968 E18.90885
G1 X73.612 Y156.464 E18.93946
G1 X72.888 Y155.895 E18.97009
G1 X72.216 Y155.266 E19.0007
G1 X71.601 Y154.58 E19.03135
G1 X71.048 Y153.844 E19.06196
G1 X70.561 Y153.063 E19.09258
G1 X70.144 Y152.242 E19.1232
G1 X69.799 Y151.388 E19.15384
G1 X69.465 Y150.243 E19.19351
G1 X69.17 Y148.969 E19.237
G1 X68.546 Y146.429 E19.324
G1 X67.875 Y144.005 E19.40765
G1 X66.846 Y140.709 E19.52249
G1 X66.027 Y138.361 E19.6052
G1 X65.115 Y135.969 E19.69035
G1 X64.301 Y133.987 E19.76161
G1 X63.93 Y133.09 E19.7939
G1 X63.656 Y132.4 E19.81859
G1 X63.282 Y131.28 E19.85786
G1 X63.202 Y130.987 E19.86797
G1 X63.118 Y130.659 E19.87923
G1 X62.86 Y129.573 E19.91635
G1 X62.71 Y128.909 E19.93899
G1 X62.508 Y127.694 E19.97996
G1 X62.473 Y127.365 E19.99096
G1 X62.446 Y127.071 E20.00078
G1 X62.37 Y126.083 E20.03374
G1 X62.325 Y125.385 E20.05701
G1 X62.309 Y125.051 E20.06813
G1 X62.299 Y124.68 E20.08047
G1 X62.293 Y124.141 E20.0984
G1 X62.294 Y110.823 E20.54136
G1 X62.304 Y110.142 E20.56401
G1 X62.314 Y109.82 E20.57473
G1 X62.333 Y109.441 E20.58735
G1 X62.369 Y108.909 E20.60508
G1 X62.433 Y108.109 E20.63178
G1 X62.495 Y107.447 E20.65389
G1 X62.665 Y106.304 E20.69232
G1 X62.728 Y105.997 E20.70275
G1 X62.805 Y105.653 E20.71447
G1 X63.077 Y104.525 E20.75307
G1 X63.24 Y103.885 E20.77503
G1 X63.602 Y102.739 E20.815
G1 X63.714 Y102.444 E20.8255
G1 X63.826 Y102.161 E20.83562
G1 X65.102 Y99.076 E20.94666
G1 X66.023 Y96.668 E21.03241
G1 X66.846 Y94.313 E21.11538
G1 X67.614 Y91.907 E21.19938
G1 X68.306 Y89.502 E21.28262
G1 X68.952 Y86.993 E21.36879
G1 X69.461 Y84.777 E21.44441
G1 X69.705 Y83.889 E21.47504
G1 X70.026 Y83.026 E21.50567
G1 X70.421 Y82.195 E21.53627
G1 X70.886 Y81.4 E21.5669
G1 X71.418 Y80.649 E21.59752
G1 X72.014 Y79.947 E21.62814
G1 X72.668 Y79.299 E21.65877
G0 F6000 X73.026 Y79.515
G1 F1200 X73.728 Y78.946 E21.68882
G1 X74.477 Y78.442 E21.71885
G1 X75.268 Y78.006 E21.74889
G1 X76.095 Y77.642 E21.77894
G1 X76.95 Y77.352 E21.80897
G1 X77.828 Y77.139 E21.83902
G1 X78.721 Y77.004 E21.86906
G1 X79.475 Y76.953 E21.89419
G1 X79.797 Y76.943 E21.90491
G1 X80.114 Y76.938 E21.91545
G1 X104.751 Y76.938 E22.73488
G1 X105.599 Y76.949 E22.76309
G1 X106.501 Y77.002 E22.79314
G1 X107.394 Y77.134 E22.82317
G1 X108.272 Y77.345 E22.8532
G1 X109.128 Y77.633 E22.88324
G1 X109.955 Y77.995 E22.91326
G1 X110.671 Y78.383 E22.94035
G1 X112.978 Y79.756 E23.02964
G1 X115.181 Y80.986 E23.11356
G1 X117.44 Y82.164 E23.1983
G1 X119.731 Y83.278 E23.28303
G1 X122.055 Y84.327 E23.36783
G1 X124.368 Y85.294 E23.45122
G1 X126.776 Y86.223 E23.53706
G1 X129.14 Y87.055 E23.62042
G1 X131.583 Y87.84 E23.70576
G1 X133.999 Y88.543 E23.78945
G1 X136.477 Y89.187 E23.87461
G1 X138.938 Y89.753 E23.9586
G1 X141.439 Y90.256 E24.04345
G1 X143.962 Y90.687 E24.12858
G1 X146.425 Y91.037 E24.21132
